X: 6691
T: Centennial Highway, The
R: reel
M: 4/4
K: Adorian
AG|:EAAB AGAB|cBcd e2 dc|BGGF G2 BA|GABc dBdB|
ABAG A2 AB|cBcd edef|gage dBGA|1 BcBG A2 AG:|2 BdBG A2 ed||
|:eaag a2 ag|edef gfge|dBGG G2 BA|GABc d2 cd|
eaag a2 ag|edef gefg|agfd eged|1 cABG A2 ed:|2 cABG A2 AG||

